X: 7
T: Southwind
T: An Ghaoth Aneas
O: Trad
R: waltz
Z: John Chambers <jc@trillian.mit.edu>
M: 3/4
L: 1/4
%Q: 30
K: G
|: c | "G"B>AG | Bcd | "Am"A2A | "D7"A2c \
| "G"B>AG | "C"EDE | "C"G2G | "G"G2 :|
d \
| "G"g2g | "C"g>fe | "G"d2d | "D7"d2c \
| "G"B>AG | "Em"Bcd | "A7"A2A | "D7"ABd |
| "G"g2g | "C"g>fe | "G"d2d | "D7"d2c \
| "G"B>AG | "D7"A<cF | "C"G2G | "G"G2 |]
%%sep 2 1 500

